priv/static/svgs/country_flags/HR.svg

<svg width="21" height="15" viewBox="0 0 21 15" xmlns="http://www.w3.org/2000/svg"><defs><linearGradient x1="50%" y1="0%" x2="50%" y2="100%" id="a"><stop stop-color="#FFF" offset="0%"/><stop stop-color="#F0F0F0" offset="100%"/></linearGradient><linearGradient x1="50%" y1="0%" x2="50%" y2="100%" id="b"><stop stop-color="#FF202D" offset="0%"/><stop stop-color="#FD0D1B" offset="100%"/></linearGradient><linearGradient x1="50%" y1="0%" x2="50%" y2="100%" id="c"><stop stop-color="#2027AC" offset="0%"/><stop stop-color="#191F94" offset="100%"/></linearGradient><linearGradient x1="50%" y1="0%" x2="50%" y2="100%" id="d"><stop stop-color="#FF212E" offset="0%"/><stop stop-color="#FD0D1B" offset="100%"/></linearGradient></defs><g fill="none" fill-rule="evenodd"><path fill="url(#a)" d="M0 0h21v15H0z"/><path fill="url(#b)" d="M0 0h21v5H0z"/><path d="m8 4 .5-.5.5.5v1H8V4Zm2 0 .5-.5.5.5v1h-1V4Zm2 0 .5-.5.5.5v1h-1V4Z" fill="#1895DB" opacity=".5"/><path d="m9 4 .5-.5.5.5v1H9V4Zm2 0 .5-.5.5.5v1h-1V4Z" fill="#191F94" opacity=".5"/><path fill="url(#c)" d="M0 10h21v5H0z"/><path d="M0 10V5h21v5H0Zm12 0h1l-.273.547c-.126.25-.454.453-.727.453v-1Zm-2 0h1v1h-1v-1Zm-2 0h1v1a.876.876 0 0 1-.727-.453L8 10Z" fill="url(#a)"/><path d="M10 5h1v1h-1V5Zm2 0h.5l.5 1h-1V5ZM8.5 5H9v1H8l.5-1ZM9 6h1v1H9V6Zm2 0h1v1h-1V6Zm-1 1h1v1h-1V7Zm2 0h1v1h-1V7Zm-1 1h1v1h-1V8ZM8 7h1v1H8V7Zm1 1h1v1H9V8ZM8 9h1v1H8V9Zm2 0h1v1h-1V9Zm2 0h1v1h-1V9Zm-1 1h1v1h-1v-1Zm-2 0h1v1H9v-1Z" fill="url(#d)"/></g></svg>

<?xml version="1.0" encoding="UTF-8"?>
<svg id="item" width="21px" height="15px" viewBox="0 0 21 15" version="1.1" xmlns="http://www.w3.org/2000/svg" xmlns:xlink="http://www.w3.org/1999/xlink">
    <defs>
        <linearGradient x1="50%" y1="0%" x2="50%" y2="100%" id="linearGradient-1">
            <stop stop-color="#FFFFFF" offset="0%"></stop>
            <stop stop-color="#F0F0F0" offset="100%"></stop>
        </linearGradient>
        <linearGradient x1="50%" y1="0%" x2="50%" y2="100%" id="linearGradient-2">
            <stop stop-color="#FF202D" offset="0%"></stop>
            <stop stop-color="#FD0D1B" offset="100%"></stop>
        </linearGradient>
        <linearGradient x1="50%" y1="0%" x2="50%" y2="100%" id="linearGradient-3">
            <stop stop-color="#2027AC" offset="0%"></stop>
            <stop stop-color="#191F94" offset="100%"></stop>
        </linearGradient>
        <linearGradient x1="50%" y1="0%" x2="50%" y2="100%" id="linearGradient-4">
            <stop stop-color="#FF212E" offset="0%"></stop>
            <stop stop-color="#FD0D1B" offset="100%"></stop>
        </linearGradient>
    </defs>
    <g id="Symbols" stroke="none" stroke-width="1" fill="none" fill-rule="evenodd">
        <g id="HR">
            <rect id="FlagBackground" fill="url(#linearGradient-1)" x="0" y="0" width="21" height="15"></rect>
            <rect id="Rectangle-2" fill="url(#linearGradient-2)" x="0" y="0" width="21" height="5"></rect>
            <path d="M8,4 L8.5,3.5 L9,4 L9,5 L8,5 L8,4 Z M10,4 L10.5,3.5 L11,4 L11,5 L10,5 L10,4 Z M12,4 L12.5,3.5 L13,4 L13,5 L12,5 L12,4 Z" id="Rectangle-675" fill="#1895DB" opacity="0.5"></path>
            <path d="M9,4 L9.5,3.5 L10,4 L10,5 L9,5 L9,4 Z M11,4 L11.5,3.5 L12,4 L12,5 L11,5 L11,4 Z" id="Rectangle-675" fill="#191F94" opacity="0.5"></path>
            <rect id="Rectangle-2" fill="url(#linearGradient-3)" x="0" y="10" width="21" height="5"></rect>
            <path d="M0,10 L0,5 L21,5 L21,10 L0,10 Z M12,10 L13,10 L12.726593,10.546814 C12.6014491,10.7971017 12.273407,11 12,11 L12,10 Z M10,10 L11,10 L11,11 L10,11 L10,10 Z M8,10 L9,10 L9,11 C8.72385763,11 8.40359497,10.8071899 8.27340698,10.546814 L8,10 Z" id="Rectangle-2" fill="url(#linearGradient-1)"></path>
            <path d="M10,5 L11,5 L11,6 L10,6 L10,5 Z M12,5 L12.5,5 L13,6 L12,6 L12,5 Z M8.5,5 L9,5 L9,6 L8,6 L8.5,5 Z M9,6 L10,6 L10,7 L9,7 L9,6 Z M11,6 L12,6 L12,7 L11,7 L11,6 Z M10,7 L11,7 L11,8 L10,8 L10,7 Z M12,7 L13,7 L13,8 L12,8 L12,7 Z M11,8 L12,8 L12,9 L11,9 L11,8 Z M8,7 L9,7 L9,8 L8,8 L8,7 Z M9,8 L10,8 L10,9 L9,9 L9,8 Z M8,9 L9,9 L9,10 L8,10 L8,9 Z M10,9 L11,9 L11,10 L10,10 L10,9 Z M12,9 L13,9 L13,10 L12,10 L12,9 Z M11,10 L12,10 L12,11 L11,11 L11,10 Z M9,10 L10,10 L10,11 L9,11 L9,10 Z" id="Rectangle-657" fill="url(#linearGradient-4)"></path>
        </g>
    </g>
</svg>
